packages/design-assets/icons/16px/Sort-Ascending.svg

<?xml version="1.0" encoding="UTF-8"?>
<svg width="16px" height="16px" viewBox="0 0 16 16" version="1.1" xmlns="http://www.w3.org/2000/svg" xmlns:xlink="http://www.w3.org/1999/xlink">
    <!-- Generator: Sketch 54.1 (76490) - https://sketchapp.com -->
    <title>Icons/16px/Sort-Ascending</title>
    <desc>Created with Sketch.</desc>
    <g id="Icons/16px/Sort-Ascending" stroke="none" stroke-width="1" fill="none" fill-rule="evenodd">
        <path d="M6,0 C6.552,0 7,0.448 7,1 L7,6 C7,6.552 6.552,7 6,7 L1,7 C0.448,7 0,6.552 0,6 L0,1 C0,0.448 0.448,0 1,0 L6,0 Z M6,9 C6.552,9 7,9.448 7,10 L7,15 C7,15.552 6.552,16 6,16 L1,16 C0.448,16 0,15.552 0,15 L0,10 C0,9.448 0.448,9 1,9 L6,9 Z M2,11 L2,14 L5,14 L5,11 L2,11 Z M13,5 L13,15 C13,15.552 12.552,16 12,16 C11.448,16 11,15.552 11,15 L11,5 L8,5 L12,0 L16,5 L13,5 Z" id="i-16-sort-ascending" fill="#818F99"></path>
    </g>
</svg>

<svg width="16" height="16" xmlns="http://www.w3.org/2000/svg"><path d="M6 0a1 1 0 0 1 1 1v5a1 1 0 0 1-1 1H1a1 1 0 0 1-1-1V1a1 1 0 0 1 1-1h5zm0 9a1 1 0 0 1 1 1v5a1 1 0 0 1-1 1H1a1 1 0 0 1-1-1v-5a1 1 0 0 1 1-1h5zm-4 2v3h3v-3H2zm11-6v10a1 1 0 0 1-2 0V5H8l4-5 4 5h-3z" fill="#818F99" fill-rule="evenodd"/></svg>
